svg/fluentui-system-icons/ic_fluent_sign_out_20_filled.svg

<svg width="20" height="20" viewBox="0 0 20 20" fill="none" xmlns="http://www.w3.org/2000/svg">
<path d="M11 3.5C11 3.3542 10.9364 3.21567 10.8257 3.12068C10.7151 3.02569 10.5686 2.98371 10.4244 3.00574L3.42445 4.07574C3.18032 4.11306 3 4.32303 3 4.57V15.43C3 15.6769 3.18028 15.8869 3.42438 15.9243L10.4244 16.9953C10.5685 17.0173 10.7151 16.9754 10.8257 16.8804C10.9363 16.7854 11 16.6468 11 16.501V10L16.1722 10L15.1753 10.8737C14.9679 11.0556 14.9468 11.3714 15.1284 11.5793C15.3099 11.7871 15.6253 11.8081 15.8328 11.6263L17.8295 9.8763C17.9379 9.78135 18 9.64419 18 9.50001C18 9.35583 17.9379 9.21866 17.8295 9.12372L15.8328 7.37372C15.6253 7.19188 15.3099 7.21294 15.1284 7.42075C14.9468 7.62857 14.9679 7.94445 15.1753 8.1263L16.1723 9.00001L11 9.00001V3.5ZM8.5 11.25C8.08579 11.25 7.75 10.9142 7.75 10.5C7.75 10.0858 8.08579 9.75 8.5 9.75C8.91421 9.75 9.25 10.0858 9.25 10.5C9.25 10.9142 8.91421 11.25 8.5 11.25ZM12.5 16H12V11H13V15.5C13 15.7761 12.7761 16 12.5 16ZM12 8V4H12.5C12.7761 4 13 4.22386 13 4.5V8H12Z" fill="#212121"/>
</svg>

<svg xmlns="http://www.w3.org/2000/svg" width="20" height="20"><path d="M11 3.5a.5.5 0 0 0-.576-.494l-7 1.07A.5.5 0 0 0 3 4.57v10.86a.5.5 0 0 0 .424.494l7 1.071a.5.5 0 0 0 .576-.494V10h5.172l-.997.874a.5.5 0 0 0 .658.752l1.996-1.75a.5.5 0 0 0 0-.752l-1.996-1.75a.499.499 0 1 0-.658.752l.997.874H11V3.5Zm-2.5 7.75a.75.75 0 1 1 0-1.5.75.75 0 0 1 0 1.5Zm4 4.75H12v-5h1v4.5a.5.5 0 0 1-.5.5ZM12 8V4h.5a.5.5 0 0 1 .5.5V8h-1Z"/></svg>
